!!!COM: Music21
!!!OTL: jig_Catch-Me-If-You-Can
!!!OMV: jig_Catch-Me-If-You-Can
**kern
*clefG2
*k[f#]
*G:
*M6/8
=1
4.g
8bL
8dd
8ggJ
=
8eeL
8dd
8bJ
4a
8b
=
8ddL
8gg
8eeJ
8ddL
8b
8gJ
=
8aL
8g
8eJ
8gL
8e
8dJ
=
4.g
8bL
8dd
8ggJ
=
8eeL
8dd
8eeJ
4gg
8ff#
=
8eeL
8dd
8bJ
8aL
8g
8aJ
!!linebreak:original
=
8bL
8g
8f#J
4.g
=||
*M6/8
4.g
8bL
8dd
8ggJ
=
8eeL
8dd
8bJ
4a
8b
=
8ddL
8gg
8eeJ
8ddL
8b
8gJ
=
8aL
8g
8eJ
8gL
8e
8dJ
=
4.g
8bL
8dd
8ggJ
=
8eeL
8dd
8eeJ
4gg
8ff#
!!linebreak:original
=
8eeL
8dd
8bJ
8aL
8g
8aJ
=
8bL
8g
8f#J
4.g
=||
4.ee
8eeL
8ff#
8ggJ
=
8eeL
8ff#
8ggJ
8eeL
8dd
8bJ
=
8eeL
8gg
8eeJ
8ddL
8b
8gJ
=
8aL
8g
8eJ
8gL
8a
8bJ
=
4.ee
8eeL
8ff#
8ggJ
!!linebreak:original
=
8aaL
8bb
8aaJ
8ggL
8ee
8ddJ
=
8eeL
8dd
8bJ
8ddL
8b
8aJ
=
8gL
8f#
8gJ
4.g
=||
4.ee
8eeL
8ff#
8ggJ
=
8eeL
8ff#
8ggJ
8eeL
8dd
8bJ
=
8eeL
8gg
8eeJ
8ddL
8b
8gJ
=
8aL
8g
8eJ
8gL
8a
8bJ
!!linebreak:original
=
4.ee
8eeL
8ff#
8ggJ
=
8aaL
8bb
8aaJ
8ggL
8ee
8ddJ
=
8eeL
8dd
8bJ
8ddL
8b
8aJ
=
8gL
8f#
8gJ
4.g
=||
*-
